X:1
T:Entrada de Pabellones
T:Marcha de Pabellones 
T:Compuesto en Uruguay
%%score { 1 | 2 }
L:1/8
Q:1/4=80
M:4/4
K:Eb
V:1 treble nm="Piano" snm="Pno."
V:2 bass 
V:1
!f! [cegc']4"^Moderato" [Gcg]3 [Gcg] | [FAcf]4 [CFAc]3 [Aca] |!>(! [G=Bg]4 [FBd]3 [FBf]!>)! | %3
 [EGe]4!mp! [CEc]4 |!f! [cegc']4 [Gcg]3 [Gcg] | [FAcf]4 [CFAc]3 [Aca] | %6
 [G=Bg]2 [GBg]2!>(! [=A=a]2 [=B=b]2!>)! | [cec']4!mp! [CE]4 :|!f! [cegc']4 [Gcg]3 [Gcg] | %9
 [FAcf]4 [CFAc]3 [Aca] |!>(! [G=Bg]4 [FBd]3 [FBf]!>)! | [EGe]4!mp! [CEc]4 | %12
!f! [cegc']4 [Gcg]3 [Gcg] | [FAcf]4 [CFAc]3 [Aca] | [G=Bg]2 [GBg]2 [=A=a]2 [=B=b]2 | %15
!>(! [cec']4 [Gcg]4!>)! |!p! !fermata![cegc']8 |] %17
V:2
 [C,,,C,,]4 [G,CE]3 [C,C] | [F,,,F,,]4 [C,F,A,]3 z | [G,,,G,,]4 [F,=B,D]3 z | %3
 [C,,,C,,]4 [C,E,G,]4 | [C,,,C,,]4 [G,CE]3 [C,C] | [F,,,F,,]4 [C,F,A,]3 z | %6
 [G,,,G,,]4 [F,=B,DF]2 z2 | [C,,,C,,]4 [C,E,]4 :| [C,,,C,,]4 [G,CE]3 [C,C] | %9
 [F,,,F,,]4 [C,F,A,]3 z | [G,,,G,,]4 [F,=B,D]3 z | [C,,,C,,]4 [C,E,G,]4 | %12
 [C,,,C,,]4 [G,CE]3 [C,C] | [F,,,F,,]4 [C,F,A,]3 z | [G,,,G,,]4 [F,=B,DF]2 z2 | %15
 [C,,C,]4 [G,,,G,,]4 | [C,,,C,,]8 |] %17

